X:4961
L:1/8
M:6/8
K:C
 d2 G{B} A2 G |{G} F2 D FGA | G2 G GAB | A2 F ABc | def gdc | B2 F B2 c | def efg | fed c2 B/c/ | 
 d2 d G2 G | F2 F D2 D | dcB AFD | G3 G2 || B/c/ | d2 d def | Te2 d Tc2 A | Bcd F2 D | G2 A B2 c | 
 d3 B2 d | A2 d G2 d | F2 d{d} c2 B | TA2 G FGA | G2 D F2 C | D2 C B,CD | F2 d{d} cBA | G3 G3 |]

